packages/katcn/src/icons/svg/favorites.svg

<svg width="24" height="25" viewBox="0 0 24 25" fill="none" xmlns="http://www.w3.org/2000/svg">
<path fill-rule="evenodd" clip-rule="evenodd" d="M4.51875 4.31201C4.25584 4.31201 4 4.4884 4 4.92466V10.3318C4 11.0066 4.26819 11.7032 4.84594 12.2806L12.5138 19.9436C13.1027 20.4582 13.9079 20.4043 14.3482 19.9644L19.643 14.6729C20.1523 14.091 20.0962 13.3176 19.607 12.8777C19.594 12.8659 19.5813 12.8539 19.5689 12.8415L11.8802 5.15768C11.8645 5.14199 11.8493 5.12579 11.8347 5.10909C11.3859 4.59647 10.7267 4.31201 9.92929 4.31201H4.51875ZM2 4.92466C2 3.46369 3.07307 2.31201 4.51875 2.31201H9.92929C11.2087 2.31201 12.4374 2.77807 13.316 3.76501L20.9656 11.4098C22.3483 12.6746 22.2906 14.7219 21.1138 16.0286C21.102 16.0417 21.09 16.0544 21.0776 16.0668L15.7619 21.379C14.4979 22.6422 12.4671 22.5917 11.159 21.4152C11.146 21.4035 11.1332 21.3914 11.1208 21.379L3.43218 13.6952C2.49119 12.7548 2 11.5542 2 10.3318V4.92466Z" fill="black"/>
<path d="M8.90918 9.25539C9.46629 8.69827 9.46629 7.79501 8.90918 7.23789C8.35206 6.68078 7.4488 6.68078 6.89168 7.23789C6.33457 7.79501 6.33457 8.69827 6.89168 9.25539C7.4488 9.8125 8.35206 9.8125 8.90918 9.25539Z" fill="black"/>
</svg>

<svg xmlns="http://www.w3.org/2000/svg" fill="none" viewBox="0 0 24 25"><path fill="#000" fill-rule="evenodd" d="M4.519 4.312c-.263 0-.519.176-.519.613v5.407c0 .675.268 1.371.846 1.949l7.668 7.663c.589.514 1.394.46 1.834.02l5.295-5.291c.51-.582.453-1.355-.036-1.795l-.038-.037-7.689-7.683-.045-.049c-.45-.513-1.108-.797-1.906-.797zM2 4.925c0-1.461 1.073-2.613 2.519-2.613h5.41c1.28 0 2.508.466 3.387 1.453l7.65 7.645c1.382 1.265 1.325 3.312.148 4.619l-.036.038-5.316 5.312c-1.264 1.263-3.295 1.213-4.603.036l-.038-.036-7.689-7.684C2.492 12.755 2 11.555 2 10.332z" clip-rule="evenodd"/><path fill="#000" d="M8.91 9.255a1.427 1.427 0 1 0-2.018-2.017 1.427 1.427 0 0 0 2.017 2.017"/></svg>
